X: 18443
T: Hurling Boys Of Portumna, The
R: reel
M: 4/4
K: Bminor
BA|:F~B3 fBeB|FBBF AFeA|F~B3 fbbf|afec dBBA|
F~B3 fBeB|FBBF AFe2|AFEF ABce|1 ffec dBBA:|2 ffec dBBc||
|:d3f a2z2|ABcd ec A2|defg abaf|gfeg f ~B3|
defa af d2|cdeg (3gfe cA|BcdB cdeb|1 afec dBBc:|2 afec dBBA||B8||

